images/usecases/health-care/hospital-2.svg

<svg width="285" height="210" viewBox="0 0 285 210" fill="none" xmlns="http://www.w3.org/2000/svg">
<rect x="12.75" y="33.7173" width="164.5" height="164.5" rx="82.25" stroke="#91A3BE" stroke-width="1.5"/>
<path d="M132.482 141.962C132.482 143.15 131.519 144.114 130.331 144.114C129.143 144.114 128.179 143.15 128.179 141.962C128.179 140.774 129.143 139.811 130.331 139.811C131.519 139.811 132.482 140.774 132.482 141.962Z" fill="#305680" stroke="#305680" stroke-width="0.187082"/>
<rect x="53.8409" y="150.05" width="82.3163" height="11.412" rx="2.99332" stroke="#305680" stroke-width="4.48998"/>
<rect x="108.47" y="104.97" width="27.6882" height="11.412" rx="2.99332" stroke="#305680" stroke-width="4.48998"/>
<path d="M128.341 134.717C128.341 135.957 129.346 136.962 130.586 136.962C131.826 136.962 132.831 135.957 132.831 134.717L128.341 134.717ZM128.341 115.717L128.341 134.717L132.831 134.717L132.831 115.717H128.341Z" fill="#305680"/>
<rect x="73.4852" y="133.09" width="20.5791" height="16.8374" stroke="#305680" stroke-width="4.48998"/>
<path d="M68.8086 132.997H99.0224" stroke="#305680" stroke-width="4.48998" stroke-linecap="round"/>
<path d="M83.7734 133.184V149.647" stroke="#305680" stroke-width="4.48998" stroke-linecap="round"/>
<path d="M108 149.454V84.0898C108 83.4698 107.497 82.9673 106.878 82.9673H60.1225C59.5026 82.9673 59 83.4698 59 84.0898V150.967" stroke="#305680" stroke-width="4.48998"/>
<rect x="71.1292" y="70.8465" width="24.5078" height="24.5078" rx="2.61915" fill="white" stroke="#305680" stroke-width="3.74165"/>
<path d="M83.49 78.7173V87.5102M79 82.8331H87.7929" stroke="#305680" stroke-width="3.74165" stroke-linecap="round"/>
<path d="M97.3086 0.467285V16.4673" stroke="#91A3BE" stroke-width="1.5"/>
<line x1="263.629" y1="111.928" x2="192.856" y2="111.928" stroke="#91A3BE" stroke-width="1.5"/>
<mask id="path-15-inside-1_10903_21802" fill="white">
<path d="M96.6276 15.461C109.37 15.429 121.993 17.9157 133.774 22.7788C145.556 27.6418 156.263 34.7857 165.285 43.801C174.306 52.8164 181.463 63.5262 186.346 75.317C191.229 87.1078 193.742 99.7478 193.741 112.513L192.394 112.513C192.394 99.9253 189.916 87.461 185.101 75.8343C180.286 64.2075 173.229 53.6467 164.333 44.7567C155.437 35.8667 144.878 28.8223 133.261 24.0269C121.644 19.2314 109.196 16.7793 96.631 16.8108L96.6276 15.461Z"/>
</mask>
<path d="M96.6276 15.461C109.37 15.429 121.993 17.9157 133.774 22.7788C145.556 27.6418 156.263 34.7857 165.285 43.801C174.306 52.8164 181.463 63.5262 186.346 75.317C191.229 87.1078 193.742 99.7478 193.741 112.513L192.394 112.513C192.394 99.9253 189.916 87.461 185.101 75.8343C180.286 64.2075 173.229 53.6467 164.333 44.7567C155.437 35.8667 144.878 28.8223 133.261 24.0269C121.644 19.2314 109.196 16.7793 96.631 16.8108L96.6276 15.461Z" fill="#B2BFD1" stroke="#91A3BE" stroke-width="2" mask="url(#path-15-inside-1_10903_21802)"/>
<path d="M274.243 121.949C268.796 121.949 264.377 117.524 264.377 112.063C264.377 106.603 268.796 102.178 274.243 102.178C279.691 102.178 284.109 106.603 284.109 112.063C284.109 117.524 279.691 121.949 274.243 121.949Z" fill="#F4F8FE" stroke="#91A3BE" stroke-width="1.5"/>
</svg>

<svg width="285" height="210" fill="none" xmlns="http://www.w3.org/2000/svg"><rect x="12.75" y="33.717" width="164.5" height="164.5" rx="82.25" stroke="#91A3BE" stroke-width="1.5"/><path d="M132.482 141.962a2.152 2.152 0 1 1-4.304 0 2.152 2.152 0 0 1 4.304 0Z" fill="#305680" stroke="#305680" stroke-width=".187"/><rect x="53.841" y="150.05" width="82.316" height="11.412" rx="2.993" stroke="#305680" stroke-width="4.49"/><rect x="108.47" y="104.97" width="27.688" height="11.412" rx="2.993" stroke="#305680" stroke-width="4.49"/><path d="M128.341 134.717a2.245 2.245 0 1 0 4.49 0h-4.49Zm0-19v19h4.49v-19h-4.49Z" fill="#305680"/><path stroke="#305680" stroke-width="4.49" d="M73.485 133.09h20.579v16.837H73.485z"/><path d="M68.809 132.997h30.213M83.773 133.184v16.463" stroke="#305680" stroke-width="4.49" stroke-linecap="round"/><path d="M108 149.454V84.09c0-.62-.503-1.123-1.122-1.123H60.123c-.62 0-1.123.503-1.123 1.123v66.877" stroke="#305680" stroke-width="4.49"/><rect x="71.129" y="70.847" width="24.508" height="24.508" rx="2.619" fill="#fff" stroke="#305680" stroke-width="3.742"/><path d="M83.49 78.717v8.793M79 82.833h8.793" stroke="#305680" stroke-width="3.742" stroke-linecap="round"/><path d="M97.309.467v16M263.629 111.928h-70.773" stroke="#91A3BE" stroke-width="1.5"/><mask id="a" fill="#fff"><path d="M96.628 15.461a96.714 96.714 0 0 1 37.146 7.318A96.864 96.864 0 0 1 165.285 43.8a97.058 97.058 0 0 1 21.061 31.516 97.196 97.196 0 0 1 7.395 37.196h-1.347a95.865 95.865 0 0 0-7.293-36.679 95.699 95.699 0 0 0-20.768-31.077 95.52 95.52 0 0 0-31.072-20.73 95.37 95.37 0 0 0-36.63-7.216l-.003-1.35Z"/></mask><path d="M96.628 15.461a96.714 96.714 0 0 1 37.146 7.318A96.864 96.864 0 0 1 165.285 43.8a97.058 97.058 0 0 1 21.061 31.516 97.196 97.196 0 0 1 7.395 37.196h-1.347a95.865 95.865 0 0 0-7.293-36.679 95.699 95.699 0 0 0-20.768-31.077 95.52 95.52 0 0 0-31.072-20.73 95.37 95.37 0 0 0-36.63-7.216l-.003-1.35Z" fill="#B2BFD1" stroke="#91A3BE" stroke-width="2" mask="url(#a)"/><path d="M274.243 121.949c-5.447 0-9.866-4.425-9.866-9.886 0-5.46 4.419-9.885 9.866-9.885 5.448 0 9.866 4.425 9.866 9.885 0 5.461-4.418 9.886-9.866 9.886Z" fill="#F4F8FE" stroke="#91A3BE" stroke-width="1.5"/></svg>
